X:1
T:Judah, 77.77
T:Judah, 77.77
T:J. V. Watts, 1881
T:Public Domain Courtesy of the Cyber Hymnal™
C:J. V. Watts, 1881
Z:Public Domain
Z:Courtesy of the Cyber Hymnal™
%%score ( 1 2 ) ( 3 4 )
L:1/8
Q:1/4=130
M:3/4
K:Bb
V:1 treble 
V:2 treble 
V:3 bass 
V:4 bass 
V:1
 [DF]4 [DB]2 | (B2 A2) [FB]2 | ([Gc]2 [EG]2) [EA]2 | [DB]6 | [Fd]4 [Fd]2 | ([Fc]2 [=EB]2) [FA]2 | %6
 (A2 B2) [=EG]2 | F6 | [DF]4 [DB]2 | (B2 A2) [FB]2 | (c2 d2) [Ge]2 | [Fe]6 | [Fd]4 [Fd]2 | %13
 (c2 G2) [GB]2 | [FB]4 [EA]2 | [DB]6 |] %16
V:2
 x6 | E4 x2 | x6 | x6 | x6 | x6 | F4 x2 | F6 | x6 | E4 x2 | G4 x2 | x6 | x6 | G4 x2 | x6 | x6 |] %16
V:3
 [B,,B,]4 [B,,F,]2 | [C,F,]4 [C,B,]2 | (G,2 C2) [C,F,]2 | [B,,F,]6 | [B,,B,]4 B,2 | C4 [F,C]2 | %6
 D4 [C,B,]2 | [F,A,]6 | [B,,B,]4 [B,,F,]2 | [C,F,]4 [D,B,]2 | ([E,G,]2 [D,=B,]2) [C,C]2 | [F,A,]6 | %12
 [B,,B,]4 [B,,_A,]2 | (G,2 C2) [=E,^C]2 | [F,D]4 [F,C]2 | [B,,B,]6 |] %16
V:4
 x6 | x6 | E,4 x2 | x6 | x4 B,2 | (A,2 G,2) x2 | (D,2 B,,2) x2 | x6 | x6 | x6 | x6 | x6 | x6 | %13
 =E,4 x2 | x6 | x6 |] %16

